mimetypes/scalable/application-mathematica.svg

<?xml version="1.0" standalone="no"?><!-- Generator: Gravit.io --><svg xmlns="http://www.w3.org/2000/svg" xmlns:xlink="http://www.w3.org/1999/xlink" style="isolation:isolate" viewBox="0 0 256 256" width="256" height="256"><switch><g><g id="application-mimetype"><g opacity="0.2"><path d=" M 78.924321 15.500025 C 43.627596 15.500025 39.829708 19.125398 40.002695 54.49353 L 40.002695 127.500014 L 40.002695 200.506441 C 39.829708 235.874573 43.627596 239.500004 78.924321 239.500004 L 177.081083 239.500004 C 212.377805 239.500004 216.002702 235.875035 216.002702 200.506441 L 216.002702 127.500014 L 216.002702 54.49353 C 216.002702 19.124994 212.377805 15.500025 177.081083 15.500025 L 78.924321 15.500025 Z " id="path1163" fill="none" vector-effect="non-scaling-stroke" stroke-width="4" stroke="rgb(0,0,0)" stroke-linejoin="miter" stroke-linecap="butt" stroke-miterlimit="4"/></g><defs><filter id="tVDd5iHNwYCCj3JhtW2cho9wOEfJMlEV" x="-200%" y="-200%" width="400%" height="400%" filterUnits="objectBoundingBox" color-interpolation-filters="sRGB"><feGaussianBlur xmlns="http://www.w3.org/2000/svg" stdDeviation="2.120027"/></filter></defs><g opacity="0.1" filter="url(#tVDd5iHNwYCCj3JhtW2cho9wOEfJMlEV)"><path d=" M 78.924315 16.5 C 43.627592 16.5 39.82971 20.125416 40.002699 55.493531 L 40.002699 128.5 L 40.002699 201.50647 C 39.82971 236.874573 43.627592 240.500001 78.924315 240.500001 L 177.081083 240.500001 C 212.377806 240.500001 215.084425 236.863068 216.002699 201.50647 L 216.002699 128.5 L 216.002699 55.493531 C 216.002699 20.124997 212.377806 16.5 177.081083 16.5 L 78.924315 16.5 Z " id="shadow" fill="rgb(0,0,0)"/></g><defs><filter id="WwhPoeQ8KJrtFgfRPh4g4MZ0Esslnv7K" x="-200%" y="-200%" width="400%" height="400%" filterUnits="objectBoundingBox" color-interpolation-filters="sRGB"><feGaussianBlur xmlns="http://www.w3.org/2000/svg" stdDeviation="8.4801079"/></filter></defs><g opacity="0.3" filter="url(#WwhPoeQ8KJrtFgfRPh4g4MZ0Esslnv7K)"><linearGradient id="_lgradient_50" x1="-0.0681490711308741" y1="0.03125" x2="0.9537210324437329" y2="1.0531201035746074" gradientTransform="matrix(176.005396,0,0,224,39.997303,16.5)" gradientUnits="userSpaceOnUse"><stop offset="0%" stop-opacity="0.58823532" style="stop-color:rgb(0,0,0)"/><stop offset="88%" stop-opacity="0" style="stop-color:rgb(0,0,0)"/><stop offset="100%" stop-opacity="1" style="stop-color:rgb(0,0,0)"/></linearGradient><path d=" M 78.924315 16.5 C 43.627592 16.5 39.82971 20.125416 40.002699 55.493531 L 40.002699 128.5 L 40.002699 201.50647 C 39.82971 236.874573 43.627592 240.500001 78.924315 240.500001 L 177.081083 240.500001 C 212.377806 240.500001 216.002699 236.875001 216.002699 201.50647 L 216.002699 128.5 L 216.002699 55.493531 C 216.002699 20.124997 212.377806 16.5 177.081083 16.5 L 78.924315 16.5 Z " id="blur" fill="url(#_lgradient_50)"/></g><path d=" M 78.924321 15.500025 C 43.627596 15.500025 39.829708 19.125398 40.002695 54.49353 L 40.002695 127.500014 L 40.002695 200.506441 C 39.829708 235.874573 43.627596 239.500004 78.924321 239.500004 L 177.081083 239.500004 C 212.377805 239.500004 216.002702 235.875035 216.002702 200.506441 L 216.002702 127.500014 L 216.002702 54.49353 C 216.002702 19.124994 212.377805 15.500025 177.081083 15.500025 L 78.924321 15.500025 Z " id="shape" fill="rgb(250,147,129)"/><g id="mathematica"><path d=" M 131.246154 78.007704 C 121.899999 107.993857 117.515386 99.806026 97.515382 85.487897 C 109.399999 115.204842 107.550002 110.289835 84.053847 108.547665 C 104.380766 123.915716 100.761536 129.142234 77.999999 140.560587 C 101.438461 140.725963 109.611538 138.953021 99.184613 160.962874 C 120.534616 150.102165 118.023078 149.994481 124.43846 178.000013 C 134.819234 149.863721 134.446157 152.748114 156.215388 166.250929 C 147.923079 143.460363 147.515383 142.845026 174.965381 148.629196 C 151.696152 128.996091 156.649999 127.596198 178.000002 113.978019 C 147.788464 115.074088 151.407695 112.928097 159.984624 88.576123 C 135.269229 107.578505 137.176923 101.509744 131.24231 78.000013" id="Path" fill="rgb(236,76,69)"/><path d=" M 108.573075 101.677594 C 119.061541 122.152942 112.042307 126.556451 95.307692 137.597912 C 119.480769 137.371006 122.649998 138.993954 125.642305 163.21132 C 135.888465 142.809048 138.969229 137.520993 160.692309 143.335927 C 146.915383 128.660132 143.850002 122.649056 150.642306 103.450537 C 133.573075 114.507379 125.880768 111.534528 108.573075 101.677594 Z " id="Path" fill="rgb(255,111,127)"/><path d=" M 130.61645 113.727691 C 136.747219 123.507705 137.047223 123.626928 147.531838 127.51894 C 137.043371 132.057047 138.727993 131.980135 139.462608 143.744616 C 130.943377 136.652854 128.224143 137.73354 118.908762 144.494557 C 123.401067 132.430096 122.635685 131.814759 112.912608 124.334566 C 124.56645 123.957673 126.162607 124.123042 130.612606 113.727691" id="Path" fill="rgb(255,178,205)"/></g><g opacity="0.6"><path d=" M 78.924573 15.500025 C 43.627848 15.500025 39.829708 19.126032 40.002695 54.494165 L 40.002695 56.494138 C 39.829708 21.126005 43.627848 17.499998 78.924573 17.499998 L 177.080824 17.499998 C 212.377545 17.499998 216.002702 21.125601 216.002702 56.494138 L 216.002702 54.494165 C 216.002702 19.125571 212.377545 15.500025 177.080824 15.500025 L 78.924573 15.500025 Z " id="highlight" fill="rgb(255,255,255)"/></g><g opacity="0.1"><path d=" M 128.002691 15.500025 L 128.002691 239.500004 L 177.080824 239.500004 C 212.377531 239.500004 215.084421 235.863501 216.002702 200.506787 L 216.002702 127.500014 L 216.002702 54.493184 C 216.002702 19.124648 212.377531 15.500025 177.080824 15.500025 L 128.002691 15.500025 Z " id="right highlight" fill="rgb(255,255,255)"/></g></g></g><foreignObject requiredExtensions="http://ns.gravit.io/"><gravitDesigner:gravitElementRef xmlns:gravitDesigner="http://ns.gravit.io/" xlink:href="#jLUlGyfdI7MQLNWRGLIKr6xPlXiZz2bU"/></foreignObject></switch><gravitDesigner:gravitGraphicSource xmlns:gravitDesigner="http://ns.gravit.io/" id="jLUlGyfdI7MQLNWRGLIKr6xPlXiZz2bU" version="1"><![CDATA[eMKcw41aacKTw6pWwpLDvSsdw7TDhHxxwrnCnsO2w4UREzECCcOtQhICCcOZwo4Jw63Du8K+AR3DvsOvI3hQFMKvwp/DncOlw7bDq25TQRV1UR5lw6bDjXPClMO3Sn9bw7zDr8OiwodFw61Ew4HDomXDsV/Cix9+w7zDm3UgasKrwqF+GsKpwp0+wp4HwrzCvMOqAn/DsUPDnw7DgcOLwqLDrsK7w7nCgB8XwrDCs8OJNcK9w6bCncKdw7w/w7NBf8Kdw585QcKWW3MlVMOSOiZIw4NGw44CwoZsEMOdw5TDl25Tw7jDmnwIN8K/Q8K/A8OfLH9+w7lxw4HDsHLCocOtNsK2B8K8QUlSwr0cA8KdWA/CqXrDosOiw7jCpMKkw5QJwostewLCmyPCphDDsyHDscO1woxewq45GcOpZMOvwqF0FMKMHlBNQGwyUWgnN8KHJ8Odw47DjmZORxgyTiEdIMO4Ln3DmMOZwpXCnz7CosKBJgQvOihNbcKMP8OtCcKLaElmeVIrXMOawqxPLhvDncKiwrnCumDChlJ2wo/DpsKawpgtw4lmw5kbwpQSwo3CvMKnM8OiwqQBwrYwDMOZwqrCtcKANkPDjW1/QFEVwpxuw5FcE3PCt8K8QsOhMsKmJU9QLcOOw6LDgUTDgcK4XynCtEYROcKzw40PwrrDoG7CoVozw7RGwrp5woVHaMO0ZnnCgVoFw7tUwqvCnwIcSw50Q2ZKw5BdZXF7QcODC8ORU09xwpAPRjJWw7LDjcKrwqtlMT4CwrwOw4RPOcKuD8OOwq7CrBrDiMOaw7LCrcOPwol0wqvCszvDmMOXEi4cLMKaXsKqD8K7w6xpwprDqwrDmcKaKmhMW8KwXcOuR8ODYno6P0shbnk+w5cew5fCt2jCrsKWDcO/wpjDpmtiw6LCp8OiwqNGw485NljCu2d3dR/DoMOMw5DCn8OZw5FbZVjCosKwwpl7Hm7DkVwTc8K3w7zDucOnOcKhQcOYH8O7w4UPw6XCkMOnw5fDv8Kcw5LCi8Krw7ZSw6TDs8K3fRvDjh/DoFccJ1EIRzAMQBESRsOQF2DDvsO5w5rDsCvChsKRIAYSAE7DoMOgw7zDs8OyPcKBYcKvIMKJw4AYBkEYDMKSw7gMWzpFcCMYCGLDsMOsw5fDv3V9VS9+AF7CocO5c8OuwpzCgsKLB3caJmUvfR56T8OPMMOJc8O1w63CuwtGPcOHwrFYw73DtcOHwotzw4DDj8KXwpFxRgnCncK8C355w7lsw6RWwq0fwrTDj2bDrsK0w7gBfiXCry8cw7jDvMOCwrHDixfCuXcxGcO6w756WMKRL35Aw77DvjTCv8OMAcO9w7c8w6IxPDXDmMObMsOCw45kEzPDjg4IQMKhw6kSwqzDlAN1TA7Ci19mw5sgDMO5WUsWwrpow4jCgU3CtsOmwrbCjcKOw6wKdXxNJMKOw4vDiB7CqRPDqCnDgMOiw67DsG/Ci1DDr8KRw5pEUTnDg8Ofw6vCgMOuwpXDgC12wqXDlVjCuGkMw4LCkk7CgG3Ck8KfUMOOOcKSHsObw55KCsOlPg1adMKzwrzClBRFw5HCkcOWw5LDhMO6UcKdwoouwrQsdQ5LwpXDrmvDkcOtw7kMbUPDi0/Cg3NlN8KjCsOfSgpmw7BQKyDCqsOKw55DXcKwH8OVwqnCqGDDosKvwpxdw5xRaiXCgcKtwqrCs8OnJcOHwpTCoRpuw6VxCz/DrMKaaAk/w6geMsOJwrrDocK3SEtwwpIhGMOqwoZcUcOnwrTDnHjDpSk9w4E7w7QWw43DlcKFURwpRsK7EcOkwprCmBVFZcOaHWofNgEKCELCgEZOw6TCk8KCYsKdcVrDrHnDnywqwrEzwoVbNMKfE3PCs8K8SsKjbizCv8KAAhXCrMKSTTDCr8OkYRfCskUcFBDDgW1awrd0RcKpw4kOw5bDjcKrJURnb8KWwrcAKw17CsKQcMOBTcOmcGjCu1LDjzAQw4XDhyg1QkzCs1DCrcKkw4/CjcONw55pwrs0Sg0uwobCtwDCr1DDk1PCjiFMX21OKsK+a1QdXU4Gw6jCrMKzMBHDg8K9CMK3w7vCnXR8w5jDoU/DkxxDwrAvUxLCoCTCuMKBCcK6w4TCjsOKEm4pdcOtw5fDsR4Dw6BbNFfDi0/DpMKnwrdpw77CnMKYwqfDohNcY8KAEsOeZjJpwrfCl8Oaw5LDpDtOEihVw7EAVjh1wodbNMKfE3Mvwr4PwooQw7DCisOewrgJQBfDlUHCscKrCH1lw7h7EMKdw5nCjMODAAhAGAhBBAjCv3wPAcKvw4jClcOhGMKMwoDDqMKsVcOIQ8KHwrrDmMOxwqvDqcK9CsKBw59OwoXDvsKRw7LCgMKvd8O/AcKUBFAUwoQ+wqw8TwJ3UyHCvQ/CtTXDo2Rxw4nDqcOOw4zClCBcwqPCjsOLwo7Du8OAEGDCp8KEw68qdMKPa8O+GHjDvXNMbj7CtMOMdcO8csOFwp1Pw71Kw4I4BsODw6RFw5QxHMK8wp9LLnjCtmFzwovCixUZHDpeKMK6TMO1wqREw7ViNWIrYcOxw4s/wqtiwrg3wqVFCFliBcKRwonCjcKvwrfCp8Ojw6hswrQMwqY1NhPDjsO9w69QMcOewosCwr/DlkXCt3MFTTxBw43CiB7DoElSw4zCjRPCuMORwoTDvw4Vw6PCqcOpw5RLBg3DpMOGw5ZrOUBpw7IQIMOTbj/DgBMFwpLDpsKvwqlYw4TDmcOBFsOmOsKZw6hHw48UUmYVJxjDqTbCocOZw6YsG8OeG8ODwo/CqBgwwpjClsKDI8KMIE5sw4rDpMKqw4gvV8OLwpPCoWZJwqTCiVphw78OFUtZwp8Rw7bCjjkoDU3DpmXDpsKbwpTCjk14TTcpX2zCt8KHw5/CoWLCksK/clsVwoXDoDh0wrLCkMOtwpEdw6DCjcK4AsKFwpk5IXBGw5/CvMO6LFrCq8OpwrdUwozCgMK3w53DicKsw6M+YXAhAQ/DmETCrVnCimvDhl4dCcKvw5R/TcOFwqLCsQFdwr8ww6vCpcKWwqYZw4XDiREcB8OrU8KjdBvDhmvDtsOew69QMcKNwrF3w41SFg4eYmvDvE4ZwpfDqwHCmALCgMOYBFtewqXCnT/CqcKKXVjDu17Dg8OgD2vDmMK/WsKaXn5TKsKlwr/DvsOtwqdFw7fDk8OldAjCgsKCCMKEwqIkwoISBEAQLz8tw4LDo8O8w43Dt8OAK8KAESBCAjgIw4IAwoEjw6DDpcKrw5NPwpc4ARjChMOQw7nDn8OLwoE/w45Qw7VldMO+w5/Cm8O/w77DtHDDqcKnw4U8Vl0tZnAIRmFodsOsdsO4w6vDtVzCv2rDsXYgw7gbR11kw7HCp0V7cRfCnWcJwr/CiCUCw6MEBMOCw4Qvb11iV2nDhMK2w4otBC5Fw4HCjTXDmkoDwosTw71BaAVtw6/Cl8O/wow+woPDpCvCjgIowozDjjkiMQhFwrDDu8OZbMKtwqPCrcOOwqdSw5vDkzBwwoXDqcO9SThzwr5gw7ESEBzDmsOdRxXDusOvF8K7W8Kuw4nCssKyw5vCscKnw5rDsmLCocKfwphBBcOlwqgjDMOZw5jDgBjCu8O4HcKLXWFVw4DDmcKKwqQiIMKnwqjDlAHCmcOqMMKYw51mwojCuSYCw7N+w7HDscOFwq7Cm8OFw7TCkcOnwo51w4nCn05jMcKvSggIw4nCqsKjcAjCuzNzwrR+bcKxw5spw5FaC2U/bsKsbsOFwqdbXwp2wooqM0cTw7DDpHY4LT7CvsOYw53CjTowwq3DhMK2JRxDwqsZwpzDjSPCuF8iwolFwrksbETDlsOiw6PCi13CmTIBw5TDhMK2wqnDpMKmWMKpNMKrw50BIDrDmjvDlcOKRiXDtcONw6LDo8KLw53DkwEuacKFD33CgijDjMOGPsKyNhtwGVJlwonCscKiw5VpwrvDuMO4YsK3CcKYeMKFR8OCSWfDlEk/J2goCADCkElpSh5YR8Ofw77DmmJ3YA7DisKZwoPDj8OwwrluSFzDicKpw61JcVwGFcOlwoZJFcOkHsONRxbCuy3Cp8Kxw5tpZTB7Z8Krw6h7wrRQwqhgwojDhsOjWsOGVcKpwonCjcOFwp9wwrE7N8KZw7Vlw4fDqQ/Dt8KVEArCvMKACMO+AkLDpGPDsVnClxBewobDnSTCtcK2woMcw7cbBsKrIMKrwqEyYsOdw5rCqcK+w6zCnhbCnwXCtMOOwpJ1w5d6w4DCuMKmUMO5woDCjisEQHA/Li3CscOXOsOjwq1nw73DlT3CscK7MEQEw41qNj5KAHPCn8Kbw6osF8OUwooHN8KrXsKAbMKfwpgEQyoFwoXCscOdwp3DlMOSDHJvdsKAw6/DjsKawr48w6QZw7N5wppTO8KgwrTDvWFjPMKgwrbCm37CmsObwozCsTvDgsK+QURqMsOmwqEgwrlHWVxZwqkcw6xvw5MswpzDmUbDs0k1w55dLW/DqMO2BcK9w57DncOQw5kTKWhhw71dw75AD1bCkUZaR8K8VMKIYMKMJMK7XGnDmVDDqcKRwropTSfDo8ODG8O6w4lyw7bCmhsFBcOwwobCviHCv8ObaF4Ow7UAc8OvY8KoSTt4JsKUwr3CoU/CtWTDoTTDr0FKwpXDmj3CgkQ4PULCqxrCszrDiQ/DpsKWw63ChsOOwqwTTsOTdHPDisOew5AjYsOFa3Y8QMO3w4wcw6IVwqPDmTZNZW8tw4ogKFwDMB5cCMORel1swpfDp8O2w5xELcOgCGcEwqQZw77Chj5Dw5nCmhV8Bz7DkEErwpkuM8KGw68eeUfCtCDDhBnDoA3CnXNGwrTDg8KKEmzDt1k7w7ZpwqNZw4QOw5bCtzV+DEDCucK+L8KVQ8OjwrtWw5s5EMO+w4g7e8O6wrTDkRx9ekPDp10aw5NswpdePsOQYXHCs8OBacOBZcKaNcKnwpbDnXrChx3Du2lkw48Qw5AywqcKwrvDp8OdwoNSw6UCRTzDsl5zdH3CmQrChMK5wqEzSsKkacOpGGLCj8K8w7PDpWHCgD0hHcOWwrbCmxnDph4YRRDCqEnDlMOZwqhSPsOQw7fCvMKndlhpWmvDgcKPw4wMWXnDlAzChsKfwrLDh8Ksw67CtMKOE8KrB8K6w4DDpGhvO8Kjw6zDi8KYKcOqamoVc8OjKznDisOOwqIbUTYfw6jDuMOFw5HDscOhO8KZwqTCtWYSw5vCt8KKw4wzecKpFXBpPipSBlTDiMKGwpLDqTx6w4YSViHDp8OAwp3ChcKsMkPDg8O3NBnDqG7DqHNOJ8ONccOcwop5w7jCvsOEVS1YY8O5HcOdw4dxVjPDocOyHTHDiVlNw4DCqQ3DhyAFwpzDjSbDgsKHPhVGw584DhUgMmvDrsKGHh9dQ8Obwqpuck3DssKHRcKTQMKwwrkhJWESIVACwoVuwppJw4zCjRxKw4AgwoLDoCBEw6DDqAvCjMK+YiQEAxjCiMOMTcOlLMKmwpcRHCTCsMO5CHjDrsOJCABGf8O+FiIJYy84w7bCgsKRH1nCgMOPw77DoBBIAgAJEMKzwrLDv8Khw7XCt2Mow5DDnsOYNkANdwkgwoHCkx4fw4TCihUwbMK3w5/CuMKYw7skw4RiVzPDvkY+w7PClcKvAELCvm1WwrFOJcOgw6o0w6V5EcOjw7vCj8OtAlrDvHfCksOmfcKCw5PDh1wvUcOcwrJMwrkqwrvCvFRJwqbDrE7CnGxANXXDnMOXacKhEcO5bcKuZ8OLUcOzw7dIw73CqCTCrVjDhcOaw77CpA53FsKUAxlqW3Z6wqdtEMKRwrlARGvCgUJBG8OCDMO9woIcd8O8YcK9w7RPRHLCgsOJG3ojO1ttLyLDk8KDBcKzZCTDmm7CgsOfa8ObeFHCn3fDukBGwpDCmFs5B8KXFMKiw5tyE8KUw50yworCksOzasKVLFcoc2fDsMKqDyrDrQBZw7DDrsKdw680wqNtBw7CvcKzw6DDvCnChDUXC8ORwofDr1YmHMOxbQwEPcK0wrfCl8OpaTPDpMKDBsKeJMK/PwQBLcOdw5F7ORUvUMOQQx9gw6DCk8Krw5nDssOhw4TCvMO5TsKnWsK4KsKzd1csX3bCrGTDpcKQUBZBwpUtwpIjwoQNXHzDpMKPwrwAE8OSw7nChl4Owp92F8OfwodHZsOmwqnDuHQBa8KyP0A7AMO7KsOvCMO4BcKZF1fDuMOMwrxLw69Cw6IYAMK9w4DDkCvCgsOhKMKEwpEYwonDoMOATMOJb8OCOxR9AUFwbk7DsH83w7PCqmFvJ0fDisOuwopMWwsUw6LDglk5YVHDh2R5w5cPe8O6wol5NsOZw4tjMkXCuCwXKMOXw4EoJ8KzR8OYw6A8JsKtDcK9W37DicK8O8OXw6bCqiMuXCsfc07Co8Kjw53DojrDrUJTw4Uew5rCjcKPRW1zw5jDuQdTwrPDvCFybhM8XxPChEvCl8OSw5/Di0fCmMKvEMKXGR/CmTfCqFwIwr3DiMORDU1eUTF4AsOESjjCrsKUCBNUBMOBw47DscOqVj4GHcKKF8KOw7YPw5rCqmdLwrwUw6fDsU4sw4/CgFXDjVIqw7hRw7oHCMKWwojCiDc6wrULw4TDmCMrXllKw7sewo3CmsO1IS/DgsOywobCrsK3wq5yw6kQwo4PYnHCiEleXD3Dnxsewrw8ZcKXNMOAwo80wphza8OvW8O0KkRIU8OgHRfDpTE3SQx4OsOhwpxGGsOFDV3CmsOVw79yYQIew6jCn8O6bcKvGWPDuMOmO8KrbQ/Clytxw7/DsF1eFcOpBjnClsOnHULCo8OHwqTDlzbCusOaTxDChcKDAyTDo8OTfVXDpRlQdyHDljvDn8KTHTtpFsOwwqnCv8KLw4J8wrovwqfCkHJ9G8KINnPCv3HDmiPCrMKiwp/DlgfDmcOmcAfDsk4HKcKPw5Ubwrpvb8OOF8O0w49Qw5/CnMKjMMO5SkA4ScOgMxVAAMKGw4EXGMKbR1ASw4BQEsKHCRjDgsK+HUdxw6JlFsKDfzdHw6Eswq/CjsOpWsOZw4XDrMKmOjlzO0/CpDAvR0dcLlHDicOZP3HDtMOcw6spaMOkwpjCrsKAwrTCosKxwp5YUFbCtsKXwonCjsKXKcKLw4PDlsOXw4XDj8OnJMKDwq/DoMOTC8OAwq9Jw77DisOww7cgw7IKXV7Dl8OtwrPDq37DksObGEDDjsKzQ8KCOETCosKPdVsxC0Aww79KwrwLwpPDn8Kca3tVDsOMw7VSw5pCEMK5w5E6SivCjx0iwrnDhcKZPi8twrDDvsOYwqXCmxLCt19uwqwQUCorw5DCmjsvN0gzHi3ClMOFwrcdXnXClWDCisOdwrg3bmU9wpFfw51Yw4HDnsKvwrg3wrtyXsKVwqvDosKuwrAlw7/CuMOlXMKBw54aw4ABdcKhwqPCsW5gb8OxbmPDhcOVwr7DmFjDsXbCkcOPwrxBwqEJLCBeXcKAa8K2MWgMXkoye8OoNifDvUwzZRnDnTfCi8KvUMObccO9BnUNw5DDpsOUdwEiWgdEBhLCpMO0UsKZdsKYwrNWUsOpeMO0w4EYwqJUw5vDgcKkwptXw5cAw6/ClsOXwovCuStjWsO9BGUTe3N3cjnDrcK8UsKZMcOtSU5GRRMCB8KRPVQuwq/Dn8Kvw5wUGsK9WcK+w61OdE8Bw5bDg8OxwoDDlXPDkwXDksKZwqFjbGfDrg7DiMKhwqMjwo7DqBvDgGgWw682SBLDoxHDoMOnwo3CjsKnwrTCuznDqcOIwqzDrsKzwrDCrsKdw5BNEMKtMRBmwrHDvcKIw5bDojoSw5TDhcO7wo3CjsOpwpHDtmvCgMOPGx1Yw6rCqsKWw5diDWjDs8KpwrJLwpnDgcOHIXTDnR11woM9wqPClHjDs8OqGsOgwp9lwqMjTsKiOMKfw59XccK4b0Zjw59Iwrduw69/wqxbw4DDrcKGPgl9w55ZB8OJPyRcwrHCgXDCtMK4wp48QmrChXQdZ8OWwrHDnzMywqvDosKwTMKlXsO8JFx9w5fCq8KSJjYOYCcNQsKyZk0nZ8OTw6LDigN8EsOsXMO8wpg2wqAdw49+UQ4gwqrDrMOswqTCksKZwrRrwp0aw4zDsi3Cj8OhUMKhwpY8wrvDk8OJwrzCvcKWw5HDlcOueSPCsQTCgiLCi8KtwprDnsONw53CvzwtYcK6TMKWwqTCvSkSw5bDnMKmFcO3KMK/ZzvDr2TDuls2wq8cGlQTaQ1FWsKXCsOVwrBZawQfw6nDu8O4VsOJw5DDtMOVDUjDoMO9BsOkwoZSwollwo/DrMKGJcOhK1tFcsOIE8KxEsO6wqpMwrHCpUtZw7fDm3DDqnBMwrQow7zDjQ1IMWpKwpgVwrnDkcOfE0LCrMKoGcOPC3ZswqPCtcKCwrfDhSHDsx92KcO0wp7Cl8OhdCZtQsOHw73ClVwMfSYTw6nDhmh3EMKWFjYRw5Itw7nCnsKXw7Vvw7PCshbDmMK9AgLDumHCmcOhw4HDksOMBjlfTy0KwpR9wrBkwpDDvsKuwqzDl8OEw7xZeMOZXjjDucKXwq/CssOzW8Ocw67Dvk/CsnMXwrbDqMK2wqV1VmZRDmHDjjDCscKiaMKYVgvCinbClHA1PMKxwrNdwroCw4LCgWHDo8OkwoomawTDmsKowqECcGvCgUtHZkPChx9jw6dXbj7DiCdLDMKjZUkmwrFKU8O7wpLDj2E3wqxhZwfDtDofwoDDr28+PFHCg8KmwpbDgx7Ch8OrXMOeJ1HDiHDCuDvCmMK4w4XCkcK9RsOzw6oKeH7DksKufVDDo3ptfcK+w7nCsFHDoyw9M2s5OS/Dkx3Cig/DiMKWwq7ClnkEB8KQbRbDrMOyVsKXR8OlwovCmw9fw6F+GMK3wqXDpyEIw4vClcKlWwLCglYrwp1PwpvDlsK6V8O3Xl7Dn8K3w6s/w4LDvVxrwo4ow4UVwqDCjR/ChMK9dFB7wqBpWMKiWcOLwpDCvMOeT8OBw6/DoD4/woBmKxrCqjRkFQBbwqESJSTCnGPCtl/DrXDDqcOoJcO/OcKWwo3DicK9Kh93ZMKrwr7Cr8KKwq9Tw65bPMOnw7bCn8Kkw5xqKsOlbUUiwr3Cn0DDocKWw4bDnMKiw55WwrPCtCrCjcOswp8lDHrCohxqRsOrIBQBQTrCpgPCsMKuw7hheXLClsKVdk58wrcJwqzDjcOHKMK3MnfDmRdFCsKbNcOZHD3CqAbCigYVwrJTwrLDrjlPwpBjJcOJR8OfRcOZRxklwqTCmTzDrAY5w5LCvMO8w6zCu0DDqcKyLUTDoGdbwqjDg8OOwqhhwrU9wrTDu3fDt8KwGkV9V8OJw5wAN8OCasK/wrc3wrINwpk5Y8Kow4JxPxLCtsKzMcOQwoAAw57CnkfDs8OtVBvDncONWyXDmyXCgn/DoTrCqMObUyVmKGXCqcOpwrHDiUXDu8OkXcKeHcOOKX7CkMKDw7XDqsK+RTfCkWjDuMOgw5fCn8KowrjCvTzCqcOfFzTDssOvLmjDvFbDkMOIw6cnFEDDtA/DlXPDkRRABcKLe3PDkEbDrRAmwqZHRQxOw49tw545V1gpeMOewrfDhcKDw5QZwr1Ewo89HUEVUEZIw7HCtMK2wpttw5DDthR7aMOfwq1Mw79VV3PCp8Kuw7N5ScOaJ1XDuX3CkRRBf8O6fHfDscOuYgwcw5fDhg5kacKRcnjCgWLCmUrDmlRMEHXDscOIO8ONIcK+wrrDuMOXw7nDgMKtwrzCmsOswqQHw71zLsKIEsKwCRtPOgZNw5lDw7pQKMO6ZUN0TjbChGLCl3rDvMO8wrfCujzCnnDCqTbDl8OLwr4yccOzw7jCtSTDnnxVwp0ow7gLwrjDuMOlw78Bw48TwqDCnA==]]></gravitDesigner:gravitGraphicSource></svg>

<svg xmlns="http://www.w3.org/2000/svg" xmlns:xlink="http://www.w3.org/1999/xlink" style="isolation:isolate" width="256" height="256"><switch><g><path d="M78.924 15.5c-35.296 0-39.094 3.625-38.921 38.994v146.012c-.173 35.369 3.625 38.994 38.921 38.994h98.157c35.297 0 38.922-3.625 38.922-38.994V54.494c0-35.369-3.625-38.994-38.922-38.994H78.924z" fill="none" vector-effect="non-scaling-stroke" stroke-width="4" stroke="#000" opacity=".2"/><defs><filter id="a" x="-200%" y="-200%" width="400%" height="400%" filterUnits="objectBoundingBox" color-interpolation-filters="sRGB"><feGaussianBlur xmlns="http://www.w3.org/2000/svg" stdDeviation="2.12"/></filter></defs><path d="M78.924 16.5c-35.296 0-39.094 3.625-38.921 38.994v146.012c-.173 35.369 3.625 38.994 38.921 38.994h98.157c35.297 0 38.003-3.637 38.922-38.994V55.494c0-35.369-3.625-38.994-38.922-38.994H78.924z" opacity=".1" filter="url(#a)"/><defs><filter id="b" x="-200%" y="-200%" width="400%" height="400%" filterUnits="objectBoundingBox" color-interpolation-filters="sRGB"><feGaussianBlur xmlns="http://www.w3.org/2000/svg" stdDeviation="8.48"/></filter></defs><g opacity=".3" filter="url(#b)"><linearGradient id="c" x1="-.068" y1=".031" x2=".954" y2="1.053" gradientTransform="matrix(176.0054 0 0 224 39.997 16.5)" gradientUnits="userSpaceOnUse"><stop offset="0%" stop-opacity=".588"/><stop offset="88%" stop-opacity="0"/><stop offset="100%"/></linearGradient><path d="M78.924 16.5c-35.296 0-39.094 3.625-38.921 38.994v146.012c-.173 35.369 3.625 38.994 38.921 38.994h98.157c35.297 0 38.922-3.625 38.922-38.994V55.494c0-35.369-3.625-38.994-38.922-38.994H78.924z" fill="url(#c)"/></g><path d="M78.924 15.5c-35.296 0-39.094 3.625-38.921 38.994v146.012c-.173 35.369 3.625 38.994 38.921 38.994h98.157c35.297 0 38.922-3.625 38.922-38.994V54.494c0-35.369-3.625-38.994-38.922-38.994H78.924z" fill="#FA9381"/><path d="M131.246 78.008c-9.346 29.986-13.73 21.798-33.73 7.48 11.884 29.717 10.034 24.802-13.462 23.06 20.327 15.368 16.708 20.594-6.054 32.013 23.438.165 31.612-1.608 21.185 20.402 21.35-10.86 18.838-10.969 25.253 17.037 10.381-28.136 10.008-25.252 31.777-11.75-8.292-22.79-8.7-23.405 18.75-17.62-23.269-19.634-18.315-21.034 3.035-34.652-30.212 1.096-26.592-1.05-18.015-25.402C135.269 107.58 137.177 101.51 131.242 78" fill="#EC4C45"/><path d="M108.573 101.678c10.489 20.475 3.47 24.878-13.265 35.92 24.173-.227 27.342 1.396 30.334 25.613 10.246-20.402 13.327-25.69 35.05-19.875-13.777-14.676-16.842-20.687-10.05-39.885-17.069 11.056-24.761 8.084-42.069-1.773z" fill="#FF6F7F"/><path d="M130.616 113.728c6.131 9.78 6.431 9.899 16.916 13.79-10.489 4.539-8.804 4.462-8.07 16.227-8.519-7.092-11.238-6.011-20.553.75 4.492-12.065 3.727-12.68-5.996-20.16 11.653-.377 13.25-.212 17.7-10.607" fill="#FFB2CD"/><g opacity=".6"><path d="M78.925 15.5c-35.297 0-39.095 3.626-38.922 38.994v2C39.83 21.126 43.628 17.5 78.925 17.5h98.156c35.297 0 38.922 3.626 38.922 38.994v-2c0-35.368-3.625-38.994-38.922-38.994H78.925z" fill="#FFF"/></g><g opacity=".1"><path d="M128.003 15.5v224h49.078c35.297 0 38.003-3.636 38.922-38.993V54.493c0-35.368-3.625-38.993-38.922-38.993h-49.078z" fill="#FFF"/></g></g><foreignObject requiredExtensions="http://ns.gravit.io/"> </foreignObject></switch> </svg>
